icons/solid/credit-card.svg

<svg width="24" height="24" viewBox="0 0 24 24" fill="none" xmlns="http://www.w3.org/2000/svg">
<path fill-rule="evenodd" clip-rule="evenodd" d="M2 7C2 5.34315 3.34315 4 5 4H19C20.6569 4 22 5.34315 22 7V8H2V7ZM2 10V17C2 18.6569 3.34315 20 5 20H19C20.6569 20 22 18.6569 22 17V10H2ZM7 12C6.44772 12 6 12.4477 6 13C6 13.5523 6.44772 14 7 14H12C12.5523 14 13 13.5523 13 13C13 12.4477 12.5523 12 12 12H7Z" fill="currentColor"/>
</svg>

<svg width="24" height="24" fill="none" xmlns="http://www.w3.org/2000/svg"><path fill-rule="evenodd" clip-rule="evenodd" d="M2 7a3 3 0 013-3h14a3 3 0 013 3v1H2V7zm0 3v7a3 3 0 003 3h14a3 3 0 003-3v-7H2zm5 2a1 1 0 100 2h5a1 1 0 100-2H7z" fill="currentColor"/></svg>
